X: 17616
T: Hogties
R: reel
M: 4/4
K: Adorian
|:eAA/A/A eAgA|A/A/Aef g2fg|1 eAA/A/A e2ag|egdg BAA/A/A:|2 a2ge degd|egdg BAA/A/A||
|:aAA/A/A a2ge|dBde g2eg|1 aAA/A/A a2ge|d2eg BAA/A/A:|2 a2ge degd|egdg BAA/A/A||

